curriculum/images/exercise-icons/take-control.svg

<svg width="82" height="82" viewBox="0 0 82 82" fill="none" xmlns="http://www.w3.org/2000/svg">
<path d="M1 41.245C1 51.8537 5.21427 62.0278 12.7157 69.5293C20.2172 77.0307 30.3913 81.245 41 81.245C51.6087 81.245 61.7828 77.0307 69.2843 69.5293C76.7857 62.0278 81 51.8537 81 41.245C81 30.6363 76.7857 20.4622 69.2843 12.9607C61.7828 5.45928 51.6087 1.245 41 1.245C30.3913 1.245 20.2172 5.45928 12.7157 12.9607C5.21427 20.4622 1 30.6363 1 41.245Z" fill="#DAEDF7" stroke="#DAEDF7"/>
<path opacity="0.15" d="M26.3 42.234C23.748 48.616 16.728 47.334 18.691 53.463C19.75 56.763 24.426 68.398 27.346 68.398C27.8003 68.9945 28.3808 69.4831 29.046 69.829L38.618 74.829C39.3472 75.2089 40.1573 75.4073 40.9795 75.4073C41.8017 75.4073 42.6118 75.2089 43.341 74.829L52.913 69.829C53.5782 69.4831 54.1587 68.9945 54.613 68.398C61.686 60.907 63.553 49.325 63.355 39.112C63.3471 38.6997 63.2396 38.2955 63.0416 37.9338C62.8436 37.5722 62.561 37.2638 62.218 37.035L55.659 32.662L26.3 42.234Z" fill="#45413C"/>
<path d="M52.518 50.53V20.906C52.5182 20.3267 52.3215 19.7646 51.96 19.3119C51.5986 18.8593 51.094 18.543 50.529 18.415C44.2779 16.99 37.7862 16.99 31.535 18.415C30.9696 18.5419 30.4643 18.8577 30.1026 19.3104C29.7408 19.7631 29.5441 20.3255 29.545 20.905V50.53L26.354 53.721V60.2C26.3547 61.133 26.611 62.048 27.0951 62.8455C27.5793 63.6431 28.2726 64.2928 29.1 64.724L38.672 69.718C39.401 70.0984 40.2112 70.297 41.0335 70.297C41.8558 70.297 42.666 70.0984 43.395 69.718L52.967 64.724C53.794 64.2928 54.487 63.643 54.9704 62.8453C55.4539 62.0477 55.7093 61.1327 55.709 60.2V53.721L52.518 50.53Z" fill="#BDBEC0"/>
<path d="M52.965 60.272L43.393 65.266C42.6639 65.6464 41.8538 65.845 41.0315 65.845C40.2091 65.845 39.399 65.6464 38.67 65.266L29.1 60.272C28.2727 59.8403 27.5795 59.1902 27.0957 58.3923C26.612 57.5944 26.3561 56.6791 26.356 55.746V60.2C26.3565 61.1328 26.6125 62.0476 27.0963 62.8452C27.58 63.6427 28.273 64.2925 29.1 64.724L38.672 69.719C39.401 70.0994 40.2111 70.298 41.0335 70.298C41.8558 70.298 42.6659 70.0994 43.395 69.719L52.967 64.724C53.794 64.2928 54.4869 63.643 54.9704 62.8453C55.4538 62.0477 55.7093 61.1327 55.709 60.2V55.746C55.7095 56.6793 55.4539 57.5948 54.9701 58.3928C54.4862 59.1909 53.7927 59.8409 52.965 60.272Z" fill="#87898C"/>
<path d="M52.518 50.53V20.906C52.5182 20.3267 52.3215 19.7646 51.96 19.3119C51.5986 18.8593 51.094 18.543 50.529 18.415C44.2779 16.99 37.7862 16.99 31.535 18.415C30.9696 18.5419 30.4643 18.8577 30.1026 19.3104C29.7408 19.7631 29.5441 20.3255 29.545 20.905V50.53L26.354 53.721V60.2C26.3547 61.133 26.611 62.048 27.0951 62.8455C27.5793 63.6431 28.2726 64.2928 29.1 64.724L38.672 69.718C39.401 70.0984 40.2112 70.297 41.0335 70.297C41.8558 70.297 42.666 70.0984 43.395 69.718L52.967 64.724C53.794 64.2928 54.487 63.643 54.9704 62.8453C55.4539 62.0477 55.7093 61.1327 55.709 60.2V53.721L52.518 50.53Z" stroke="#45413C" stroke-linejoin="round"/>
<path d="M41.032 14.156V8.732C41.0319 7.68449 41.2381 6.64722 41.6388 5.67941C42.0396 4.7116 42.6271 3.83221 43.3677 3.09147C44.1084 2.35072 44.9877 1.76312 45.9555 1.36223C46.9232 0.961335 47.9605 0.754997 49.008 0.754997" stroke="#45413C" stroke-linecap="round" stroke-linejoin="round"/>
<path d="M42.9459 17.391V16.07C42.9345 15.5698 42.7278 15.094 42.37 14.7443C42.0122 14.3946 41.5318 14.1988 41.0314 14.1988C40.5311 14.1988 40.0507 14.3946 39.6929 14.7443C39.3351 15.094 39.1284 15.5698 39.1169 16.07V17.391C40.3929 17.3303 41.6693 17.3303 42.9459 17.391Z" fill="white" stroke="#45413C" stroke-linecap="round" stroke-linejoin="round"/>
<path d="M44.2219 42.872V17.472C42.098 17.311 39.9649 17.311 37.8409 17.472V42.872L40.9869 45.425L44.2219 42.872Z" fill="#45413C" stroke="#45413C" stroke-linejoin="round"/>
<path d="M63.4051 34.007C63.3974 33.5948 63.2901 33.1906 63.0922 32.8289C62.8944 32.4672 62.612 32.1588 62.2691 31.93L55.7091 27.557V60.2C55.7106 61.32 55.3434 62.4095 54.6641 63.3C61.7361 55.8 63.6001 44.22 63.4051 34.007Z" fill="#45413C" stroke="#45413C" stroke-linejoin="round"/>
<path d="M52.5179 50.53L55.7089 53.721V23.542C55.7091 23.0318 55.5563 22.5332 55.2702 22.1107C54.984 21.6882 54.5778 21.3612 54.1039 21.172L52.5179 20.537V50.53Z" fill="#6DD627" stroke="#45413C" stroke-linejoin="round"/>
<path d="M26.354 53.721V37.129C23.802 43.51 16.782 42.234 18.746 48.358C19.8 51.66 24.48 63.293 27.4 63.293C26.7203 62.4026 26.3527 61.3132 26.354 60.193V53.721Z" fill="#45413C" stroke="#45413C" stroke-linejoin="round"/>
<path d="M29.545 50.53L26.354 53.721V23.542C26.354 23.0318 26.5069 22.5333 26.793 22.1108C27.0791 21.6883 27.4852 21.3613 27.959 21.172L29.545 20.537V50.53Z" fill="#6DD627" stroke="#45413C" stroke-linejoin="round"/>
<path d="M29.545 34.577L37.841 42.872Z" fill="#45413C"/>
<path d="M29.545 34.577L37.841 42.872" stroke="#45413C" stroke-linejoin="round"/>
<path d="M44.222 42.872L52.518 34.577Z" fill="#45413C"/>
<path d="M44.222 42.872L52.518 34.577" stroke="#45413C" stroke-linejoin="round"/>
<path d="M23.1641 28.2C23.1641 28.8769 23.4329 29.5261 23.9115 30.0049C24.39 30.4836 25.0391 30.7527 25.7161 30.753H26.3541V23.733H25.7161C25.0391 23.7333 24.39 24.0024 23.9115 24.4811C23.4329 24.9599 23.1641 25.6091 23.1641 26.286V28.2Z" fill="#87898C" stroke="#45413C" stroke-linejoin="round"/>
<path d="M23.1641 37.767C23.1641 38.4439 23.4329 39.0931 23.9115 39.5719C24.39 40.0506 25.0391 40.3197 25.7161 40.32H26.3541V33.3H25.7161C25.0391 33.3003 24.39 33.5694 23.9115 34.0481C23.4329 34.5269 23.1641 35.1761 23.1641 35.853V37.767Z" fill="#87898C" stroke="#45413C" stroke-linejoin="round"/>
<path d="M23.1641 47.339C23.1641 48.0159 23.4329 48.6651 23.9115 49.1439C24.39 49.6226 25.0391 49.8917 25.7161 49.892H26.3541V42.872H25.7161C25.0391 42.8723 24.39 43.1414 23.9115 43.6201C23.4329 44.0989 23.1641 44.7481 23.1641 45.425V47.339Z" fill="#87898C" stroke="#45413C" stroke-linejoin="round"/>
<path d="M37.8409 36.491L41.0319 39.682L44.2219 36.433" stroke="#45413C" stroke-linejoin="round"/>
<path d="M37.8409 30.806L41.0319 33.997L44.2219 30.748" stroke="#45413C" stroke-linejoin="round"/>
<path d="M37.8409 20.537H44.2219V29.471H37.8409V20.537Z" fill="#FF6242" stroke="#45413C" stroke-linejoin="round"/>
</svg>

<svg xmlns="http://www.w3.org/2000/svg" width="82" height="82" fill="none" viewBox="0 0 82 82"><path fill="#daedf7" stroke="#daedf7" d="M1 41.245a40 40 0 1 0 80 0 40 40 0 0 0-80 0Z"/><path fill="#45413c" d="M26.3 42.234c-2.552 6.382-9.572 5.1-7.609 11.229 1.059 3.3 5.735 14.935 8.655 14.935a5.1 5.1 0 0 0 1.7 1.431l9.572 5a5.11 5.11 0 0 0 4.723 0l9.572-5a5.1 5.1 0 0 0 1.7-1.431c7.073-7.491 8.94-19.073 8.742-29.286a2.56 2.56 0 0 0-1.137-2.077l-6.559-4.373z" opacity=".15"/><path fill="#bdbec0" d="M52.518 50.53V20.906a2.55 2.55 0 0 0-1.989-2.491 42.7 42.7 0 0 0-18.994 0 2.55 2.55 0 0 0-1.99 2.49V50.53l-3.191 3.191V60.2a5.11 5.11 0 0 0 2.746 4.524l9.572 4.994a5.1 5.1 0 0 0 4.723 0l9.572-4.994a5.1 5.1 0 0 0 2.742-4.524v-6.479z"/><path fill="#87898c" d="m52.965 60.272-9.572 4.994a5.1 5.1 0 0 1-4.723 0l-9.57-4.994a5.11 5.11 0 0 1-2.744-4.526V60.2a5.11 5.11 0 0 0 2.744 4.524l9.572 4.995a5.1 5.1 0 0 0 4.723 0l9.572-4.995a5.1 5.1 0 0 0 2.742-4.524v-4.454a5.1 5.1 0 0 1-2.744 4.526"/><path stroke="#45413c" stroke-linejoin="round" d="M52.518 50.53V20.906a2.55 2.55 0 0 0-1.989-2.491 42.7 42.7 0 0 0-18.994 0 2.55 2.55 0 0 0-1.99 2.49V50.53l-3.191 3.191V60.2a5.11 5.11 0 0 0 2.746 4.524l9.572 4.994a5.1 5.1 0 0 0 4.723 0l9.572-4.994a5.1 5.1 0 0 0 2.742-4.524v-6.479z"/><path stroke="#45413c" stroke-linecap="round" stroke-linejoin="round" d="M41.032 14.156V8.732A7.98 7.98 0 0 1 49.008.755"/><path fill="#fff" stroke="#45413c" stroke-linecap="round" stroke-linejoin="round" d="M42.946 17.391V16.07a1.915 1.915 0 0 0-3.83 0v1.321q1.915-.09 3.83 0"/><path fill="#45413c" stroke="#45413c" stroke-linejoin="round" d="M44.222 42.872v-25.4a42 42 0 0 0-6.381 0v25.4l3.146 2.553zM63.405 34.007a2.55 2.55 0 0 0-1.136-2.077l-6.56-4.373V60.2a5.1 5.1 0 0 1-1.045 3.1c7.072-7.5 8.936-19.08 8.741-29.293Z"/><path fill="#6dd627" stroke="#45413c" stroke-linejoin="round" d="m52.518 50.53 3.19 3.191V23.542a2.55 2.55 0 0 0-1.604-2.37l-1.586-.635z"/><path fill="#45413c" stroke="#45413c" stroke-linejoin="round" d="M26.354 53.721V37.129c-2.552 6.381-9.572 5.105-7.608 11.229C19.8 51.66 24.48 63.293 27.4 63.293a5.1 5.1 0 0 1-1.046-3.1z"/><path fill="#6dd627" stroke="#45413c" stroke-linejoin="round" d="m29.545 50.53-3.191 3.191V23.542a2.55 2.55 0 0 1 1.605-2.37l1.586-.635z"/><path fill="#45413c" d="m29.545 34.577 8.296 8.295Z"/><path stroke="#45413c" stroke-linejoin="round" d="m29.545 34.577 8.296 8.295"/><path fill="#45413c" d="m44.222 42.872 8.296-8.295Z"/><path stroke="#45413c" stroke-linejoin="round" d="m44.222 42.872 8.296-8.295"/><path fill="#87898c" stroke="#45413c" stroke-linejoin="round" d="M23.164 28.2a2.553 2.553 0 0 0 2.552 2.553h.638v-7.02h-.638a2.553 2.553 0 0 0-2.552 2.553zM23.164 37.767a2.553 2.553 0 0 0 2.552 2.553h.638V33.3h-.638a2.553 2.553 0 0 0-2.552 2.553zM23.164 47.339a2.553 2.553 0 0 0 2.552 2.553h.638v-7.02h-.638a2.553 2.553 0 0 0-2.552 2.553z"/><path stroke="#45413c" stroke-linejoin="round" d="m37.84 36.491 3.192 3.191 3.19-3.249M37.84 30.806l3.192 3.191 3.19-3.249"/><path fill="#ff6242" stroke="#45413c" stroke-linejoin="round" d="M37.84 20.537h6.382v8.934H37.84z"/></svg>
